html/dist/img/svg/vc.svg

<svg width="102" height="103" viewBox="0 0 102 103" fill="none" xmlns="http://www.w3.org/2000/svg"><path d="M67.04 62.16c-.57-1.76 1.58-4.97-2.66-5.45-1.04-.12-1.01-1.73-.45-2.55 1.15-1.71 3.03-.76 4.59-.92 1.58-.16 2.48.54 2.46 2.28-.04 2.99-.14 5.99.05 8.96.14 2.24-1.21 5.08 2.21 6.32.78.28.81 1.6.32 2.22-1.23 1.58-3.54 1.41-4.49.6-1.8-1.53-2.78-.9-4.49-.04-4.97 2.48-9.87-.34-10.49-5.92-.27-2.46-.02-4.98-.13-7.46-.04-1.06.56-2.59-.93-3-1.56-.44-2.51-1.15-1.91-2.73.82-2.17 2.84-1.06 4.35-1.22 1.62-.17 2.43.68 2.41 2.37-.03 3.15 0 6.31.01 9.46.01 2.79.24 5.78 3.86 5.76 3.52-.02 5.27-2.39 5.29-5.93.01-.83 0-1.66 0-2.75zM41.52 41.32c1.23-3.38 2.69-6.65 3.57-10.06.88-3.4 3.21-3.47 5.75-3.06 2.26.36 2.02 2.99 1 3.22-5.07 1.14-4.26 5.79-5.88 8.93-1.06 2.05-1.79 4.29-2.55 6.48-.49 1.4-1.16 2.28-2.82 2.22-1.52-.06-1.93-1.11-2.33-2.2-1.42-3.9-2.81-7.81-4.2-11.73-.39-1.09-.54-2.44-1.7-2.9-1.45-.57-3.61-.19-3.02-2.82.28-1.27 1.4-1.28 2.38-1.25 1.89.06 4.09-.69 4.92 2.08.81 2.7 1.7 5.39 2.73 8.02.4.97.31 2.33 2.15 3.07zm-3.09 32.61c-1.16 0-2.33.12-3.47-.03-1.34-.17-3.18.83-3.84-1.19-.56-1.71.86-2.04 2.02-2.77 1.35-.86 1.68-11.82.33-12.7-1.41-.92-3.56-1.41-1.97-3.38 1.16-1.42 4.43-1.28 4.99-.33 1.83 3.12 3.33 1.05 5.07.35 4.23-1.72 5.93-.68 5.54 3.34-.09.94.16 2.1-1.13 2.44-1.03.28-1.97.14-2.4-1.05-1.03-2.87-2.55-1.37-3.65-.22-3.05 3.17-2.13 7.21-1.58 10.85.28 1.87 2.87.79 4.4 1.08 1.46.27 3.8-.83 3.89 1.75.1 2.68-2.27 1.71-3.73 1.85-1.48.12-2.98.01-4.47.01zM63.87 27.7c5.15-.06 8.37 2.31 8.01 5.86-.1 1.01-.09 2.07-1.39 2.26-1.04.15-2.13.01-2.27-1.28-.43-3.99-3.19-3.74-5.86-3.08-3.48.86-5.25 3.4-5.3 6.92-.05 3.27 1.4 5.77 4.69 6.81 2.15.68 4.36.51 6.17-.85 1.45-1.1 2.74-1.49 3.64.26.84 1.63-.88 2.3-1.84 3.02-3.41 2.53-8.92 2.31-12.52-.62-3.67-2.98-5.07-6.88-3.69-11.51 1.42-4.76 5.47-7.73 10.36-7.79z" fill="#FE5A84"/></svg>

<svg width="102" height="103" viewBox="0 0 102 103" fill="none" xmlns="http://www.w3.org/2000/svg">
<path d="M67.04 62.16C66.47 60.4 68.62 57.19 64.38 56.71C63.34 56.59 63.37 54.98 63.93 54.16C65.08 52.45 66.96 53.4 68.52 53.24C70.1 53.08 71 53.78 70.98 55.52C70.94 58.51 70.84 61.51 71.03 64.48C71.17 66.72 69.82 69.56 73.24 70.8C74.02 71.08 74.05 72.4 73.56 73.02C72.33 74.6 70.02 74.43 69.07 73.62C67.27 72.09 66.29 72.72 64.58 73.58C59.61 76.06 54.71 73.24 54.09 67.66C53.82 65.2 54.07 62.68 53.96 60.2C53.92 59.14 54.52 57.61 53.03 57.2C51.47 56.76 50.52 56.05 51.12 54.47C51.94 52.3 53.96 53.41 55.47 53.25C57.09 53.08 57.9 53.93 57.88 55.62C57.85 58.77 57.88 61.93 57.89 65.08C57.9 67.87 58.13 70.86 61.75 70.84C65.27 70.82 67.02 68.45 67.04 64.91C67.05 64.08 67.04 63.25 67.04 62.16Z" fill="#FE5A84"/>
<path d="M41.52 41.32C42.75 37.94 44.21 34.67 45.09 31.26C45.97 27.86 48.3 27.79 50.84 28.2C53.1 28.56 52.86 31.19 51.84 31.42C46.77 32.56 47.58 37.21 45.96 40.35C44.9 42.4 44.17 44.64 43.41 46.83C42.92 48.23 42.25 49.11 40.59 49.05C39.07 48.99 38.66 47.94 38.26 46.85C36.84 42.95 35.45 39.04 34.06 35.12C33.67 34.03 33.52 32.68 32.36 32.22C30.91 31.65 28.75 32.03 29.34 29.4C29.62 28.13 30.74 28.12 31.72 28.15C33.61 28.21 35.81 27.46 36.64 30.23C37.45 32.93 38.34 35.62 39.37 38.25C39.77 39.22 39.68 40.58 41.52 41.32Z" fill="#FE5A84"/>
<path d="M38.43 73.93C37.27 73.93 36.1 74.05 34.96 73.9C33.62 73.73 31.78 74.73 31.12 72.71C30.56 71 31.98 70.67 33.14 69.94C34.49 69.08 34.82 58.12 33.47 57.24C32.06 56.32 29.91 55.83 31.5 53.86C32.66 52.44 35.93 52.58 36.49 53.53C38.32 56.65 39.82 54.58 41.56 53.88C45.79 52.16 47.49 53.2 47.1 57.22C47.01 58.16 47.26 59.32 45.97 59.66C44.94 59.94 44 59.8 43.57 58.61C42.54 55.74 41.02 57.24 39.92 58.39C36.87 61.56 37.79 65.6 38.34 69.24C38.62 71.11 41.21 70.03 42.74 70.32C44.2 70.59 46.54 69.49 46.63 72.07C46.73 74.75 44.36 73.78 42.9 73.92C41.42 74.04 39.92 73.93 38.43 73.93Z" fill="#FE5A84"/>
<path d="M63.87 27.7C69.02 27.64 72.24 30.01 71.88 33.56C71.78 34.57 71.79 35.63 70.49 35.82C69.45 35.97 68.36 35.83 68.22 34.54C67.79 30.55 65.03 30.8 62.36 31.46C58.88 32.32 57.11 34.86 57.06 38.38C57.01 41.65 58.46 44.15 61.75 45.19C63.9 45.87 66.11 45.7 67.92 44.34C69.37 43.24 70.66 42.85 71.56 44.6C72.4 46.23 70.68 46.9 69.72 47.62C66.31 50.15 60.8 49.93 57.2 47C53.53 44.02 52.13 40.12 53.51 35.49C54.93 30.73 58.98 27.76 63.87 27.7Z" fill="#FE5A84"/>
</svg>
